build/img/sprite_auto.svg

<svg xmlns="http://www.w3.org/2000/svg" xmlns:xlink="http://www.w3.org/1999/xlink"><defs>
<clipPath id="clip0">
<rect x="9" y="18" width="12" height="7.4" transform="rotate(-90 9 18)" fill="white"/>
</clipPath>
</defs><symbol id="icon-arrow" viewBox="0 0 25 25">
<g clip-path="url(#clip0)">
<path fill-rule="evenodd" clip-rule="evenodd" d="M9 7.4L13.6 12L9 16.6L10.4 18L16.4 12L10.4 6L9 7.4Z" fill="#2C2E3F" fill-opacity="0.5"/>
</g>

</symbol><symbol id="icon-burger-menu" viewBox="0 0 30 30">
<path fill-rule="evenodd" clip-rule="evenodd" d="M3.75 21H26.25V20H3.75V21ZM3.75 14.75H26.25V13.75H3.75V14.75ZM3.75 7.5V8.5H26.25V7.5H3.75Z" fill="black"/>
</symbol><symbol id="icon-email" viewBox="0 0 26 20">
<path d="M24.2273 0H1.77273C0.768182 0 0 0.764706 0 1.76471V18.2353C0 19.2353 0.768182 20 1.77273 20H24.2273C25.2318 20 26 19.2353 26 18.2353V1.76471C26 0.764706 25.2318 0 24.2273 0ZM24.2273 17L19.5591 12.3529C19.2045 12 18.6727 12 18.3182 12.3529C17.9636 12.7059 17.9636 13.2353 18.3182 13.5882L22.9864 18.2353H3.01362L7.68182 13.5882C8.03636 13.2353 8.03636 12.7059 7.68182 12.3529C7.32727 12 6.79547 12 6.44092 12.3529L1.77273 17V5.70585L12.4091 13.7059C12.5864 13.8236 12.7636 13.8823 12.9409 13.8823C13.1182 13.8823 13.2954 13.8236 13.4727 13.7059L24.2273 5.70585V17ZM24.2273 1.76471V3.4706L12.9409 11.8235L1.77273 3.4706V1.76471H24.2273Z" fill="#0AD9C6"/>
</symbol><symbol id="icon-menu-close" viewBox="0 0 50 52">
<rect width="50" height="52" fill="white"/>
<path d="M14 37.7213L36 15M36 37.7213L14 15" stroke="#141517" stroke-opacity="0.2" stroke-linecap="round" stroke-linejoin="round"/>
</symbol><symbol id="icon-phone" viewBox="0 0 17 24">
<path d="M1.45616 6.74199C1.37161 5.54391 1.63734 4.36374 2.34096 3.41452C2.95096 2.554 3.74517 2.08404 4.70245 1.8094C5.50874 1.57018 6.03721 1.86329 6.26974 2.75972C6.60192 4.09991 7.07604 5.44018 7.24817 6.85129C7.30253 7.47252 6.90089 8.35089 6.46604 8.80328C5.37589 9.87655 5.60238 10.6576 6.42982 12.282C6.6865 12.8057 7.09418 13.7111 7.88839 14.9096C8.71583 16.1169 9.1537 16.7649 10.2167 16.2152C11.3974 15.6212 12.2581 16.0032 13.1489 16.9621C13.7529 17.6546 14.4172 18.2495 15.0212 18.942C15.8939 19.9718 15.8547 20.6818 15.1722 21.4091C13.9431 22.7486 11.9138 23.1913 10.4039 22.2943C9.57045 21.8058 8.74 21.1664 8.07866 20.4206C5.16453 17.1002 3.06272 13.2388 1.79741 8.88089C1.59508 8.14421 1.50146 7.39872 1.45616 6.74199Z" stroke="#0AD9C6" stroke-width="2" stroke-miterlimit="10"/>
</symbol></svg>

<svg xmlns="http://www.w3.org/2000/svg" xmlns:xlink="http://www.w3.org/1999/xlink"><defs><clipPath id="clip0"><path transform="rotate(-90 9 18)" fill="#fff" d="M9 18h12v7.4H9z"/></clipPath></defs><symbol id="icon-arrow"><g clip-path="url(#clip0)"><path fill-rule="evenodd" clip-rule="evenodd" d="M9 7.4l4.6 4.6L9 16.6l1.4 1.4 6-6-6-6L9 7.4z" fill="#2C2E3F" fill-opacity=".5"/></g></symbol><symbol id="icon-burger-menu"><path fill-rule="evenodd" clip-rule="evenodd" d="M3.75 21h22.5v-1H3.75v1zm0-6.25h22.5v-1H3.75v1zm0-7.25v1h22.5v-1H3.75z" fill="#000"/></symbol><symbol id="icon-email"><path d="M24.227 0H1.773C.768 0 0 .765 0 1.765v16.47C0 19.235.768 20 1.773 20h22.454C25.232 20 26 19.235 26 18.235V1.765C26 .765 25.232 0 24.227 0zm0 17l-4.668-4.647a.86.86 0 00-1.24 0 .85.85 0 000 1.235l4.667 4.647H3.014l4.668-4.647a.85.85 0 000-1.235.86.86 0 00-1.241 0L1.773 17V5.706l10.636 8a.955.955 0 00.532.176.955.955 0 00.532-.176l10.754-8V17zm0-15.235V3.47l-11.286 8.352L1.773 3.471V1.765h22.454z" fill="#0AD9C6"/></symbol><symbol id="icon-menu-close"><path fill="#fff" d="M0 0h50v52H0z"/><path d="M14 37.721L36 15m0 22.721L14 15" stroke="#141517" stroke-opacity=".2" stroke-linecap="round" stroke-linejoin="round"/></symbol><symbol id="icon-phone"><path d="M1.456 6.742c-.084-1.198.181-2.378.885-3.327.61-.861 1.404-1.331 2.361-1.606.807-.239 1.335.054 1.568.95.332 1.34.806 2.681.978 4.092.055.622-.347 1.5-.782 1.952-1.09 1.074-.864 1.855-.036 3.479.256.524.664 1.43 1.458 2.628.828 1.207 1.266 1.855 2.329 1.305 1.18-.594 2.041-.212 2.932.747.604.693 1.268 1.288 1.872 1.98.873 1.03.834 1.74.151 2.467-1.229 1.34-3.258 1.782-4.768.885-.834-.488-1.664-1.128-2.325-1.873-2.914-3.32-5.016-7.182-6.282-11.54a10.989 10.989 0 01-.34-2.139z" stroke="#0AD9C6" stroke-width="2" stroke-miterlimit="10"/></symbol></svg>
